X:115
T:Round House. JJo8.115, The
B:J.Johnson Choice Collection Vol 8 1758
Z:vmp.Simon Wilson 2013 www.village-music-project.org.uk
M:12/8
L:1/8
Q:3/8=120
K:D
|:A3A2FB3B2A|Bcd cBAB3B2A|dedf2d cBAB2B|AGF EDCD3D3:|
|:deff2d efgg2e|fga agf efd cBA|def fed efg gfe|fga agf{f}e3e2d/e/|
f2de2cd2Bc2A|dcB AGFE3E3|B3B2Ad3d2B|AGF EDCD3D3:|
